symbols/web/escalator/materialsymbolsoutlined/escalator_wght300gradN25fill1_24px.svg

<svg xmlns="http://www.w3.org/2000/svg" height="24" width="24"><path d="M7 17.45h3l5-9h2q.4 0 .675-.275t.275-.675q0-.4-.275-.675T17 6.55h-3l-5 9H7q-.4 0-.675.275t-.275.675q0 .4.275.675T7 17.45Zm-1.625 2.875q-.7 0-1.2-.5t-.5-1.2V5.375q0-.7.5-1.2t1.2-.5h13.25q.7 0 1.2.5t.5 1.2v13.25q0 .7-.5 1.2t-1.2.5Z"/></svg>

<svg xmlns="http://www.w3.org/2000/svg" height="24" width="24"><path d="M7 17.45H10L15 8.45H17Q17.4 8.45 17.675 8.175Q17.95 7.9 17.95 7.5Q17.95 7.1 17.675 6.825Q17.4 6.55 17 6.55H14L9 15.55H7Q6.6 15.55 6.325 15.825Q6.05 16.1 6.05 16.5Q6.05 16.9 6.325 17.175Q6.6 17.45 7 17.45ZM5.375 20.325Q4.675 20.325 4.175 19.825Q3.675 19.325 3.675 18.625V5.375Q3.675 4.675 4.175 4.175Q4.675 3.675 5.375 3.675H18.625Q19.325 3.675 19.825 4.175Q20.325 4.675 20.325 5.375V18.625Q20.325 19.325 19.825 19.825Q19.325 20.325 18.625 20.325Z"/></svg>
